X: 11747
T: Eleanor's
R: jig
M: 6/8
K: Adorian
|:gee dBB|AAA Bdd|gee dBB|ABd e3|
gee dBB|AAA Bdd|gee fdd|egf e3:|
|:dee Bdd|Bee dBB|dee dBB|ABd e3|
dee Bdd|Bee dBB|gee fdd|egf e3:|
|:AAA Bdd|Bee dBB|AAA Bdd|ABd e3|
AAA Bdd|Bee dBB|gee fdd|1 egf e3:|2 egf e2 d||
eaa gee|dee dBB|eaa gee|ABd e2 d|
eaa gee|dee dBB|gee fdd|egf e2 d|
eaa gee|dee dBB|eaa gee|ABd e3|
AAA Bdd|Bee dBB|gee fdd|egf e3||

